X: 15
T: Flights of Fancy
M:C
L:1/8
B:Goulding & Co. - Twenty Four Country Dances for the Year 1808 (London)
N:"With proper Tune & Directions to each Dance (as they may be
N:performed at Court, Bath, and all Public Assemblys."
Z:Transcribed and edited by Flynn Titford-Mock
Z:abcs's:AK/Fiddler's Companion
K:C
G|ccec gcec|ccec B(dd)f|ccec geec|B/c/d Gd ec c:||
g|egcg afge|gcec B(dd)f|egcg afge|G>Acd e(cc)g|
egcg afge|fdec|Bcde|fadf egce|G>ABd ec c||

%%sep 1 1 500
